assets/ai/ai-preregistered-tc-plus-square.svg

<svg xmlns="http://www.w3.org/2000/svg" width="100%" height="100%" viewBox="-75.52 -43.52 599.04 599.04"><path d="M 48 32 C 21.5 32 0 53.5 0 80 L 0 432 C 0 458.5 21.5 480 48 480 L 400 480 C 426.5 480 448 458.5 448 432 L 448 80 C 448 53.5 426.5 32 400 32 L 48 32 z M 223.95117 96 C 233.3375 96 242.61982 98.044026 249.69727 102.13477 L 344.36133 156.77734 C 358.51593 164.95384 370.11523 185.01051 370.11523 201.35352 L 370.11523 310.64648 C 370.11523 326.98951 358.51593 347.04615 344.36133 355.22266 L 249.69727 409.87695 C 242.61982 413.95764 233.3375 416 223.95117 416 C 214.66559 416 205.32355 413.95764 198.24609 409.87695 L 103.58203 355.22266 C 89.427438 347.04615 77.884766 326.98951 77.884766 310.64648 L 77.884766 201.35352 C 77.884766 185.01051 89.427438 164.95384 103.58203 156.77734 L 198.24609 102.13477 C 205.32355 98.044026 214.61553 96 223.95117 96 z M 239.85352 164.76953 C 229.21122 164.76953 220.64453 172.84757 220.64453 183.99023 C 220.64453 195.12795 229.21122 203.20508 239.85352 203.20508 C 247.52613 203.20508 254.15766 198.87514 257.22656 192.32617 L 248.26758 190.00391 C 246.73311 192.53838 243.31887 194.33008 239.85352 194.33008 C 234.06208 194.33008 229.9043 190.37089 229.9043 183.99023 C 229.9043 177.91152 233.71571 173.52734 239.85352 173.52734 C 242.72469 173.52734 245.88816 174.85414 247.52148 176.96289 L 256.58594 174.5918 C 253.31866 168.67645 247.08118 164.76953 239.85352 164.76953 z M 186.9707 165.14258 L 186.9707 173.11914 L 197.66016 173.11914 L 197.66016 200.6875 L 206.18555 200.6875 L 206.18555 173.11914 L 216.97266 173.11914 L 216.97266 165.14258 L 186.9707 165.14258 z M 287.97852 214.16797 C 285.25003 214.16797 282.52497 215.20293 280.45703 217.27344 L 206.05664 291.64648 C 201.92074 295.78749 195.19645 295.78749 191.06055 291.64648 L 173.11719 273.75977 C 168.981 269.61379 162.20848 269.61379 158.07227 273.75977 L 146.55664 285.26172 C 143.31782 288.5307 142.42106 296.18516 146.55664 300.32617 L 191.06055 344.7793 C 195.19645 348.92035 201.92074 348.92035 206.05664 344.7793 L 307.01562 243.83789 C 311.15149 239.69688 311.1515 232.92445 307.01562 228.77344 L 295.50781 217.27344 C 293.43986 215.20296 290.70667 214.16797 287.97852 214.16797 z M 294.44531 293.55469 L 294.44531 308.63086 L 279.67383 308.63086 L 279.67383 319.90625 L 294.54297 319.90625 L 294.54297 334.64062 L 306.57031 334.64062 L 306.57031 319.90625 L 321.28516 319.90625 L 321.28516 308.63086 L 306.4668 308.63086 L 306.4668 293.55469 L 294.44531 293.55469 z"/></svg>

<svg xmlns="http://www.w3.org/2000/svg" width="100%" height="100%" viewBox="-75.52 -43.52 599.04 599.04"><path d="M48 32C21.5 32 0 53.5 0 80v352c0 26.5 21.5 48 48 48h352c26.5 0 48-21.5 48-48V80c0-26.5-21.5-48-48-48H48zm175.951 64c9.387 0 18.669 2.044 25.746 6.135l94.664 54.642c14.155 8.177 25.754 28.234 25.754 44.577v109.292c0 16.344-11.6 36.4-25.754 44.577l-94.664 54.654c-7.077 4.08-16.36 6.123-25.746 6.123-9.285 0-18.627-2.042-25.705-6.123l-94.664-54.654c-14.155-8.177-25.697-28.233-25.697-44.577V201.354c0-16.343 11.542-36.4 25.697-44.577l94.664-54.642c7.078-4.091 16.37-6.135 25.705-6.135zm15.903 68.77c-10.643 0-19.21 8.078-19.21 19.22 0 11.138 8.567 19.215 19.21 19.215 7.672 0 14.304-4.33 17.373-10.879l-8.96-2.322c-1.534 2.534-4.948 4.326-8.413 4.326-5.792 0-9.95-3.96-9.95-10.34 0-6.078 3.812-10.463 9.95-10.463 2.87 0 6.034 1.327 7.667 3.436l9.065-2.371c-3.267-5.916-9.505-9.822-16.732-9.822zm-52.883.373v7.976h10.69v27.569h8.525v-27.569h10.787v-7.976H186.97zm101.008 49.025a10.594 10.594 0 00-7.522 3.105l-74.4 74.373c-4.136 4.141-10.86 4.141-14.996 0l-17.944-17.886c-4.136-4.146-10.909-4.146-15.045 0l-11.515 11.502c-3.24 3.269-4.136 10.923 0 15.064l44.504 44.453c4.135 4.141 10.86 4.141 14.996 0l100.959-100.941c4.135-4.141 4.135-10.914 0-15.065l-11.508-11.5a10.613 10.613 0 00-7.53-3.105zm6.466 79.387v15.076h-14.771v11.275h14.869v14.735h12.027v-14.735h14.715v-11.275h-14.818v-15.076h-12.022z"/></svg>
